X: 27410
T: Mohill, The
R: reel
M: 4/4
K: Cmajor
C3D ~E3G|cded cAGc|AG~G2 EGca|gecd edd2|
G,A,CD ~E3G|cded cAAG|AG~G2 EGcA|1 GEFD EFED:|2 GEFD ECC2||
|:eg~g2 gece|f2ed cAAc|G3A cBcd|egag edd2|
eg~g2 gece|fAed cAGc|eg~g2 eaa^f|1 gedB cBcd:|2 gedc B3d||
c3g acgc-|~c2gc BcdB|c2gc acgc|GA (3Bcd edcB|
c3g acgc-|~c2gc Bcdg|eg~g2 ~a3^f|gedB cAGE||

